X: 41384
T: Tweed Side
R: waltz
M: 3/4
K: Dmajor
fe|d2A2 Bc|d3e fg|f2e2fe|d2A2Bc|d2gfed|d4fe|
d2A2 Bc|dcde fg|f2e2 de|fa gfed|eg A2c2|d4:|
|:fg|a2 gfed|a2 bagf|f2e2fg|a2 gfed|dc defg|a2ABcd|
A2 GFED|AF BAGF|F2E2 DE|FA GFED|BA FDTE2|D4:|

